src/assets/map_nymble_svg.svg

<?xml version="1.0" encoding="UTF-8" standalone="no"?>
<!DOCTYPE svg PUBLIC "-//W3C//DTD SVG 1.1//EN" "http://www.w3.org/Graphics/SVG/1.1/DTD/svg11.dtd">
<svg width="100%" height="100%" viewBox="0 0 2561 1688" version="1.1" xmlns="http://www.w3.org/2000/svg" xmlns:xlink="http://www.w3.org/1999/xlink" xml:space="preserve" xmlns:serif="http://www.serif.com/" style="fill-rule:evenodd;clip-rule:evenodd;stroke-linecap:round;stroke-linejoin:round;stroke-miterlimit:1.5;">
    <g id="Color-areas" serif:id="Color areas" transform="matrix(1,0,0,1,62.822,-186.767)">
        <g transform="matrix(1,0,0,1,15,-35)">
            <path d="M1115.72,316.42L850.534,1419.35L2288.46,1419.35L2030.34,316.42L1115.72,316.42Z" style="fill:rgb(255,239,200);"/>
        </g>
        <g transform="matrix(1,0,0,1,15,-35)">
            <path d="M299.916,856.669L563.912,958.449L623.882,979.823L691.251,991.549L945.684,1051.13L822.044,1594.65L513.318,1529.92L399.018,1487.49L363.702,1472.94L431.431,1317.06L155.91,1203.95L299.916,856.669Z" style="fill:rgb(255,239,200);"/>
        </g>
        <g transform="matrix(1,0,0,1,15,-35)">
            <path d="M155.91,1597.75L185.944,1499.28L217.784,1419.28L400.524,1488.39L511.745,1529.4L820.997,1595.23L767.215,1826.77L155.91,1597.75Z" style="fill:rgb(255,239,200);"/>
        </g>
    </g>
    <g id="Grey-areas" serif:id="Grey areas" transform="matrix(1,0,0,1,62.822,-186.767)">
        <g transform="matrix(1,0,0,1,15,-35)">
            <path d="M2187.8,985.513C2187.8,985.513 2164.17,987.893 2147.3,989.592C2143.06,990.019 2139.2,992.229 2136.68,995.67C2134.17,999.111 2133.24,1003.46 2134.12,1007.63C2141.51,1042.45 2158.68,1123.48 2165.76,1156.89C2166.59,1160.81 2168.95,1164.23 2172.32,1166.4C2175.68,1168.57 2179.78,1169.3 2183.69,1168.43C2201.17,1164.54 2227.92,1158.59 2227.92,1158.59" style="fill:rgb(215,215,215);"/>
        </g>
        <g transform="matrix(0.895211,0.445642,-0.65865,1.3231,-371.997,-1161.32)">
            <path d="M2187.8,985.513C2187.8,985.513 2145.39,999.536 2125.28,1006.19C2119.17,1008.21 2115.83,1012.75 2117.14,1017.27C2124.55,1042.71 2148.31,1124.33 2155.83,1150.17C2157.18,1154.82 2163.09,1158.21 2170.08,1158.36C2194.86,1158.89 2249.59,1160.06 2249.59,1160.06" style="fill:rgb(215,215,215);"/>
        </g>
        <g transform="matrix(1,0,0,1,15,-35)">
            <path d="M2057.99,426.144L1820.02,426.144C1811.74,426.144 1805.02,432.86 1805.02,441.144L1805.02,773.467C1805.02,781.751 1811.74,788.467 1820.02,788.467L2141.84,788.467" style="fill:rgb(215,215,215);"/>
        </g>
    </g>
    <g id="Walls" transform="matrix(1,0,0,1,62.822,-186.767)">
        <g transform="matrix(1,0,0,1,15,-35)">
            <path d="M299.953,856.767L153.178,1207.41" style="fill:none;stroke:black;stroke-width:16px;"/>
        </g>
        <g transform="matrix(1,0,0,1,15,-35)">
            <path d="M153.178,1207.41L429.306,1316.74" style="fill:none;stroke:black;stroke-width:16px;"/>
        </g>
        <g transform="matrix(1,0,0,1,15,-35)">
            <path d="M429.306,1316.74L363.702,1472.94L216.027,1419.35L185.944,1499.28" style="fill:none;stroke:black;stroke-width:16px;"/>
        </g>
        <g transform="matrix(1,0,0,1,15,-35)">
            <path d="M363.702,1472.94L399.018,1487.49" style="fill:none;stroke:black;stroke-width:16px;"/>
        </g>
        <g transform="matrix(1,0,0,1,15,-35)">
            <path d="M513.318,1529.92L822.044,1594.65" style="fill:none;stroke:black;stroke-width:16px;"/>
        </g>
        <g transform="matrix(1,0,0,1,161.739,-385.738)">
            <path d="M153.178,1207.41L417.173,1309.19" style="fill:none;stroke:black;stroke-width:16px;"/>
        </g>
        <g transform="matrix(1,0,0,1,518.007,-249.63)">
            <path d="M188.245,1206.18L442.678,1265.76" style="fill:none;stroke:black;stroke-width:16px;"/>
        </g>
        <g transform="matrix(1,0,0,1,15,-35)">
            <path d="M1057.99,1190.9L1888.38,1190.9" style="fill:none;stroke:black;stroke-width:16px;"/>
        </g>
        <g transform="matrix(1,0,0,1,16,-35)">
            <path d="M2263.55,1322.05L2285.99,1419.35L861.421,1419.35L920.612,1162.63" style="fill:none;stroke:black;stroke-width:16px;"/>
        </g>
        <g transform="matrix(1,0,0,1,16,-35)">
            <path d="M946.195,1051.67L1115.72,316.42L1226.5,316.42" style="fill:none;stroke:black;stroke-width:16px;"/>
        </g>
        <g transform="matrix(1,0,0,1,16,-35)">
            <path d="M1311.8,316.42L2031.69,316.42L2144.5,805.696" style="fill:none;stroke:black;stroke-width:16px;"/>
        </g>
        <g transform="matrix(1,0,0,1,16,-35)">
            <path d="M2167.9,907.183L2237.94,1210.97" style="fill:none;stroke:black;stroke-width:16px;"/>
        </g>
        <g transform="matrix(-1,0,0,1,3162.41,-35)">
            <path d="M2031.69,316.42L2201.21,1051.67" style="fill:none;stroke:black;stroke-width:1px;"/>
        </g>
        <g transform="matrix(-1,0,0,1,3162.41,-35)">
            <path d="M2226.8,1162.63L2285.99,1419.35" style="fill:none;stroke:black;stroke-width:1px;"/>
        </g>
        <g transform="matrix(1,0,0,1,-39.3853,205.391)">
            <path d="M921.965,1156.76L822.91,1586.38L210.295,1357.36" style="fill:none;stroke:black;stroke-width:16px;"/>
        </g>
        <g transform="matrix(1,0,0,1,15,-35)">
            <path d="M970.13,958.517L1175.52,958.517" style="fill:none;stroke:black;stroke-width:16px;"/>
        </g>
        <g transform="matrix(1,0,0,1,15,-35)">
            <path d="M1327.74,958.517L1823.72,958.517" style="fill:none;stroke:black;stroke-width:16px;"/>
        </g>
        <g transform="matrix(1,0,0,1,15,-35)">
            <path d="M1954.93,958.517L2180.69,958.517" style="fill:none;stroke:black;stroke-width:16px;"/>
        </g>
    </g>
</svg>

<?xml version="1.0" encoding="UTF-8"?>
<!DOCTYPE svg  PUBLIC '-//W3C//DTD SVG 1.1//EN'  'http://www.w3.org/Graphics/SVG/1.1/DTD/svg11.dtd'>
<svg clip-rule="evenodd" fill-rule="evenodd" stroke-linecap="round" stroke-linejoin="round" stroke-miterlimit="1.5" version="1.1" viewBox="0 0 2561 1688" xmlSpace="preserve" xmlns="http://www.w3.org/2000/svg" xmlnsSerif="http://www.serif.com/">
    <g transform="translate(62.822 -186.77)" serifId="Color areas">
        <g transform="translate(15 -35)">
            <path d="m1115.7 316.42-265.19 1102.9h1437.9l-258.12-1102.9h-914.62z" fill="#ffefc8"/>
        </g>
        <g transform="translate(15 -35)">
            <path d="m299.92 856.67 264 101.78 59.97 21.374 67.369 11.726 254.43 59.581-123.64 543.52-308.73-64.73-114.3-42.43-35.316-14.55 67.729-155.88-275.52-113.11 144.01-347.28z" fill="#ffefc8"/>
        </g>
        <g transform="translate(15 -35)">
            <path d="m155.91 1597.8 30.034-98.47 31.84-80 182.74 69.11 111.22 41.01 309.25 65.83-53.782 231.54-611.3-229.02z" fill="#ffefc8"/>
        </g>
    </g>
    <g transform="translate(62.822 -186.77)" serifId="Grey areas">
        <g transform="translate(15 -35)">
            <path d="m2187.8 985.51s-23.63 2.38-40.5 4.079c-4.24 0.427-8.1 2.637-10.62 6.078-2.51 3.441-3.44 7.79-2.56 11.96 7.39 34.82 24.56 115.85 31.64 149.26 0.83 3.92 3.19 7.34 6.56 9.51 3.36 2.17 7.46 2.9 11.37 2.03 17.48-3.89 44.23-9.84 44.23-9.84" fill="#d7d7d7"/>
        </g>
        <g transform="matrix(.89521 .44564 -.65865 1.3231 -372 -1161.3)">
            <path d="m2187.8 985.51s-42.41 14.023-62.52 20.677c-6.11 2.02-9.45 6.56-8.14 11.08 7.41 25.44 31.17 107.06 38.69 132.9 1.35 4.65 7.26 8.04 14.25 8.19 24.78 0.53 79.51 1.7 79.51 1.7" fill="#d7d7d7"/>
        </g>
        <g transform="translate(15 -35)">
            <path d="m2058 426.14h-237.97c-8.28 0-15 6.716-15 15v332.32c0 8.284 6.72 15 15 15h321.82" fill="#d7d7d7"/>
        </g>
    </g>
    <g transform="translate(62.822 -186.77)">
        <g transform="translate(15 -35)">
            <path d="m299.95 856.77-146.78 350.64" fill="none" stroke="#000" stroke-width="16px"/>
        </g>
        <g transform="translate(15 -35)">
            <path d="m153.18 1207.4 276.13 109.33" fill="none" stroke="#000" stroke-width="16px"/>
        </g>
        <g transform="translate(15 -35)">
            <path d="m429.31 1316.7-65.604 156.2-147.68-53.59-30.083 79.93" fill="none" stroke="#000" stroke-width="16px"/>
        </g>
        <g transform="translate(15 -35)">
            <path d="m363.7 1472.9 35.316 14.55" fill="none" stroke="#000" stroke-width="16px"/>
        </g>
        <g transform="translate(15 -35)">
            <path d="m513.32 1529.9 308.73 64.73" fill="none" stroke="#000" stroke-width="16px"/>
        </g>
        <g transform="translate(161.74 -385.74)">
            <path d="m153.18 1207.4 264 101.78" fill="none" stroke="#000" stroke-width="16px"/>
        </g>
        <g transform="translate(518.01 -249.63)">
            <path d="m188.24 1206.2 254.43 59.58" fill="none" stroke="#000" stroke-width="16px"/>
        </g>
        <g transform="translate(15 -35)">
            <path d="m1058 1190.9h830.39" fill="none" stroke="#000" stroke-width="16px"/>
        </g>
        <g transform="translate(16 -35)">
            <path d="m2263.6 1322 22.44 97.3h-1424.6l59.191-256.72" fill="none" stroke="#000" stroke-width="16px"/>
        </g>
        <g transform="translate(16 -35)">
            <path d="m946.2 1051.7 169.52-735.25h110.78" fill="none" stroke="#000" stroke-width="16px"/>
        </g>
        <g transform="translate(16 -35)">
            <path d="m1311.8 316.42h719.89l112.81 489.28" fill="none" stroke="#000" stroke-width="16px"/>
        </g>
        <g transform="translate(16 -35)">
            <path d="m2167.9 907.18 70.04 303.79" fill="none" stroke="#000" stroke-width="16px"/>
        </g>
        <g transform="matrix(-1 0 0 1 3162.4 -35)">
            <path d="m2031.7 316.42 169.52 735.25" fill="none" stroke="#000" stroke-width="1px"/>
        </g>
        <g transform="matrix(-1 0 0 1 3162.4 -35)">
            <path d="m2226.8 1162.6 59.19 256.72" fill="none" stroke="#000" stroke-width="1px"/>
        </g>
        <g transform="translate(-39.385 205.39)">
            <path d="m921.96 1156.8-99.055 429.62-612.62-229.02" fill="none" stroke="#000" stroke-width="16px"/>
        </g>
        <g transform="translate(15 -35)">
            <path d="m970.13 958.52h205.39" fill="none" stroke="#000" stroke-width="16px"/>
        </g>
        <g transform="translate(15 -35)">
            <path d="m1327.7 958.52h495.98" fill="none" stroke="#000" stroke-width="16px"/>
        </g>
        <g transform="translate(15 -35)">
            <path d="m1954.9 958.52h225.76" fill="none" stroke="#000" stroke-width="16px"/>
        </g>
    </g>
</svg>
